X:595
T:Peat Fire Flame, The
S:Amalgam of many renderings
Z:Nigel Gatherer
L:1/8
M:2/4
K:Em
B | E>F G>F   | ED B2  | BA AG/A/ | BA AB |
    E>F G>F   | ED B>A | GE FD    | E2 E :|
z | G>A Bg/f/ | ed B2  | BA AG/A/ | BA AB |
    G>A Bg/f/ | ed B>A | GE FD    | E2 E :|]
